X:1
T:Ave Regina coelorum - Porta
T:#
%%score [ 1 2 3 4 ]
L:1/8
Q:1/4=100
M:none
K:C
V:1 treble nm="Soprano" snm="S"
V:2 treble nm="Alto" snm="A"
V:3 treble-8 nm="Tenor" snm="T"
V:4 tenor nm="Bass" snm="B"
V:1
"^Ave Regina coelorum""^Costanzo Porta\n(c.1529-1601)" c2 B2 A2 B2 G2 A2 B2 c4 || %1
w: A\- * * * * * * ve|
[Q:1/4=200] z8 c8 | c8 c4 c4 | (f6 ed e2 d2 e2 f2 | g4) c4 e8 | %5
w: Re-|gi- na coe-|lo\- * * * * * *|* rum: A-|
[M:4/2][Q:1/4=200][Q:1/4=200][Q:1/4=200][Q:1/4=200] d8 z4 c4- | c4 A4 B6 B2 | c4 d4 e4 (c4- | %8
w: ve, A\-|* ve Do- mi-|na An- ge- lo\-|
 c4 B2 A2 B4) B4 | z16 | z8 d8 | G4 (g6 ^fe f4) | g4 d4 e8- | e4 d4 z8 | d8 G4 g4- | g4 ^f4 g4 d4 | %16
w: * * * * rum:||Sal-|ve ra\- * * *|dix et por\-|* ta,|ex qua mun\-|* do lux est|
 e8 d8 | z8 c4 e2 g2- | g2 ^f2 g4 e4 =f4- | f4 e4 d4 c4 | (e6 d2 c4) B4 | A8 B8 | z4 B8 B4 | %23
w: or- ta.|Gau- de glo\-|* ri- o- sa, su\-|* per o- mnes|spe\- * * ci-|o- sa.|Va- le|
 c6 c2 A4 (A4- | A2 GF G4) A8 | z4 B4 c4 e4- | e4 d4 c4 B4 | (A2 G2 c4 A8) | z4 B4 c4 e4- | %29
w: val- de de- co\-|* * * * ra,|et pro no\-|* bis sem- per|Chri\- * * stum,|et pro no\-|
 e4 d4 c8 | A4 B4 c4[Q:1/4=198] d4 |[Q:1/4=194] e4[Q:1/4=189] g8[Q:1/4=184] f4 | %32
w: * bis sem-|per Chri- stum, sem-|per Chri- stum|
[Q:1/4=181] e4[Q:1/4=176] (c8[Q:1/4=171] B4) |[Q:1/4=170] c16 |] %34
w: ex- o\- *|ra.|
V:2
 x16 x2 || G16 | A8 G4 A4 | (_B2 A2 A2 GF G8- | G4) E4 z4 c4- |[M:4/2] c4 B4 (c2 B2 A2 G2 | %6
w: |Re-|gi- na coe-|lo\- * * * * *|* rum: A\-|* ve Do\- * * *|
 F4) E4 G8 | A4 A4 G8- | G8 D8 | z8 G8 | C4 (c6 BA B4) | c4 c4 A8 | G8 z8 | G8 C4 c4- | %14
w: * mi- na|An- ge- lo\-|* rum:|Sal-|ve ra\- * * *|dix et por-|ta,|ex qua mun\-|
 c4 B4 c4 c4 | A8 B8 | G4 G2 B4 A2 B4 | c4 A8 G4 | A4 B4 c4 A4 | F4 G4 z4 A4 | G4 (E6 F2 G4- | %21
w: * do lux est|or- ta.|Gau- de glo- ri- o-|sa, su- per|o- mnes, su- per|o- mnes spe-|ci- o\- * *|
 G4 ^F4) G8 | z4 G8 G4 | E8 F8 | F4 (D6 C2 C2 B,C | D6 E2 C8) | G,8 z4 D4 | E4 G8 F4 | E4 D4 G8 | %29
w: * * sa.|Va- le|val- de|de- co\- * * * *||ra, et|pro no- bis|sem- per Chri-|
 G4 G4 E8 | D8 z8 | G8 A4 A4 | G16 | G16 |] %34
w: stum ex- o-|ra,|Chri- stum ex-|o-|ra.|
V:3
 x16 x2 || c16 | f8 e4 f4 | d8 (c6 d2 | e2 f2 g8) g4- |[M:4/2][K:treble-8] g4 g4 f4 e4 | c8 d4 d4 | %7
w: |Re-|gi- na coe-|lo- rum: *|* * * A\-|* ve Do- mi-|na An- ge-|
 (f8 e8) | d8 z8 | g6 f2 e4 d4 | e8 g8 | e8 z4 d4 | e4 g8 g4 | c4 d4 (e6 f2 | g8) e8 | z16 | %16
w: lo\- *|rum:|Sal- ve ra- dix|et por-|ta, ex|qua mun- do|lux est or\- *|* ta.||
 c4 e2 g4 ^f2 g4 | e4 f8 e4 | d4 G4 z4 d4- | d4 c4 B4 A4 | (c6 B2 A4) G4 | d8 (d6 c2 | %22
w: Gau- de glo- ri- o-|sa, su- per|o- mnes, su\-|* per o- mnes|spe\- * * ci-|o- sa. *|
 B4) d4 d4 e4- | e4 c4 c8 | d8 e8 | z16 | z8 z4 B4 | c4 e8 d4 | c4 B4 e8 | c4 B4 (c2 B2 A2 G2 | %30
w: * Va- le val\-|* de de-|co- ra.||et|pro no- bis|sem- per Chri-|stum ex- o\- * * *|
 F4) G4 A4 B4 | (c2 d2 e8) A4 | (c2 B2 e4) d8 | c16 |] %34
w: * ra, sem- per|Chri\- * * stum|ex\- * * o-|ra.|
V:4
 x16 x2 || z16 | z16 | z16 | C16 |[M:4/2] G,8 A,8- | A,4 A,4 G,8 | F,4 F,4 (C,8 | G,8) G,8 | %9
w: ||||A-|ve Do\-|* mi- na|An- ge- lo\-|* rum:|
 z4 C8 B,4 | A,8 G,4 G,4 | C8 D8 | z8 C8- | C4 B,4 A,8 | G,4 G,4 C8 | D8 G,8 | z16 | z16 | z16 | %19
w: Sal- ve|ra- dix et|por- ta,|ex|* qua mun-|do lux est|or- ta.||||
 z16 | z16 | z8 G,8- | G,8 G,8 | A,8 F,4 F,4 | _B,8 A,8 | z4 G,4 A,4 C4- | C4 B,4 A,4 G,4 | %27
w: ||Va\-|* le|val- de de-|co- ra,|et pro- no\-|* bis sem- per|
 C,8 C,4 D,4 | (E,2 F,2 G,4) C,8 | z4 G,4 A,4 C4- | C4 B,4 A,4 G,4 | C,8 C,4 D,4 | (E,6 F,2 G,8) | %33
w: Chri- stum ex-|o\- * * ra,|et pro no-|* bis sem- per|Chri- stum ex-|o\- * *|
 C,16 |] %34
w: ra.|

